X:53237
F:http://www.vwml.org/record/HAM/5/32/37%%VWML:HAM-5-32-37-0
T:Trees, The
S:Mrs Marina Russell, Upwey coll. HED Hammond
O:England
A:Dorset
N:Transcribed from HAM-02-239.gif
F:HAM-05-32-37.abc
Z:EFDSS;PJHeadford
M:C
L:1/8
Q:1/4=90
K:C
"^V 1/"D D|D> G G> A B2A> A|A> D D< DD2zF|F> F F> F F> F F> F|E> C C> CC2c c|
M:6/8
Q:1/4=120
c3 B2G|\
M:9/8
A2B c3 d>c B|\
M:C
Q:1/4=90
c> c B> A D>C D> E|F> F ((3(FE) D) C2 "_*"B,> C|D HG3 z2||
"^Another verse"\
D D|D>G G> AB2A2|A> D D< DD2F> F|F2 F> F F> F F> F|E> C C> CC2c c|
w:At the age* of four-teen he|was a mar-ried man, At the|age of fif-teen he was the fa-ther of a son, At the
BG G Bd2B2|c> c B> A D>C D>E|F> F ((3(FE) D) C2 "_Bb"B,> C|D HG3z2||
w:age* of six-teen
W:Transcribed from HAM-02-239.gif. In V 1, Hammond annotates the note at * with: B flattened (once.
W:The MIDI file HAM-05-32-37.mid comes directly from the ABC for the above - PJH
